src/images/svg/edit.svg

<svg width="14" height="15" viewBox="0 0 14 15" fill="none" xmlns="http://www.w3.org/2000/svg">
<path d="M1.62669 11.5325C1.67264 11.119 1.69561 10.9122 1.75816 10.719C1.81367 10.5475 1.89208 10.3844 1.99129 10.2339C2.10311 10.0644 2.2502 9.91728 2.54438 9.6231L9.91733 2.25016C10.5617 1.60583 11.6063 1.60583 12.2507 2.25016V2.25016C12.895 2.89449 12.895 3.93916 12.2507 4.5835L4.87771 11.9564C4.58353 12.2506 4.43644 12.3977 4.26687 12.5095C4.11643 12.6087 3.95327 12.6871 3.78183 12.7426C3.58859 12.8052 3.38184 12.8282 2.96835 12.8741L1.45898 13.0418L1.62669 11.5325Z" stroke="#FAFAFA" stroke-width="1.3" stroke-linecap="round" stroke-linejoin="round"/>
</svg>

<svg width="14" height="15" fill="none" xmlns="http://www.w3.org/2000/svg"><path d="M1.627 11.533c.046-.414.069-.62.131-.814a2 2 0 0 1 .233-.485c.112-.17.26-.317.553-.61L9.917 2.25a1.65 1.65 0 0 1 2.334 0v0a1.65 1.65 0 0 1 0 2.333l-7.373 7.373c-.294.295-.442.442-.611.553a2 2 0 0 1-.485.234c-.193.062-.4.085-.814.131l-1.509.168.168-1.51z" stroke="#FAFAFA" stroke-width="1.3" stroke-linecap="round" stroke-linejoin="round"/></svg>
